src/public/img/landing/new/built-for-prod/4.svg

<svg width="64" height="64" viewBox="0 0 64 64" fill="none" xmlns="http://www.w3.org/2000/svg">
<rect width="64" height="64" rx="16" fill="#FCF0ED"/>
<circle cx="29" cy="23" r="3" stroke="#F65128" stroke-width="2"/>
<path d="M35 26C36.6569 26 38 24.6569 38 23C38 21.3431 36.6569 20 35 20" stroke="#F65128" stroke-width="2" stroke-linecap="round"/>
<path d="M24 30C24 29.4477 24.4477 29 25 29H33C33.5523 29 34 29.4477 34 30V36H32V43C32 43.5523 31.5523 44 31 44H27C26.4477 44 26 43.5523 26 43V36H24V30Z" stroke="#F65128" stroke-width="2" stroke-linejoin="round"/>
<path d="M36 44H37C37.5523 44 38 43.5523 38 43V36H40V30C40 29.4477 39.5523 29 39 29H38" stroke="#F65128" stroke-width="2" stroke-linecap="round" stroke-linejoin="round"/>
</svg>

<svg xmlns="http://www.w3.org/2000/svg" width="64" height="64" fill="none">
  <rect width="64" height="64" fill="#FCF0ED" rx="16"/>
  <circle cx="29" cy="23" r="3" stroke="#F65128" stroke-width="2"/>
  <path stroke="#F65128" stroke-linecap="round" stroke-width="2" d="M35 26a3 3 0 1 0 0-6"/>
  <path stroke="#F65128" stroke-linejoin="round" stroke-width="2" d="M24 30a1 1 0 0 1 1-1h8a1 1 0 0 1 1 1v6h-2v7a1 1 0 0 1-1 1h-4a1 1 0 0 1-1-1v-7h-2v-6Z"/>
  <path stroke="#F65128" stroke-linecap="round" stroke-linejoin="round" stroke-width="2" d="M36 44h1a1 1 0 0 0 1-1v-7h2v-6a1 1 0 0 0-1-1h-1"/>
</svg>
